logo/clojure.svg

<?xml version="1.0" encoding="UTF-8" standalone="no"?>
<svg width="256px" height="256px" viewBox="0 0 256 256" version="1.1" xmlns="http://www.w3.org/2000/svg" xmlns:xlink="http://www.w3.org/1999/xlink" preserveAspectRatio="xMidYMid">
	<g>
		<path d="M127.999,0 C57.423,0 -1.42108547e-14,57.423 -1.42108547e-14,128.001 C-1.42108547e-14,198.585 57.423,256.005 127.999,256.005 C198.577,256.005 256,198.585 256,128.001 C256,57.423 198.577,0 127.999,0" fill="#FFFFFF"></path>
		<g transform="translate(12.000000, 12.000000)">
			<path d="M111.318,118.303 C110.168,120.795 108.899,123.595 107.585,126.575 C102.94,137.099 97.796,149.905 95.917,158.109 C95.242,161.031 94.824,164.652 94.832,168.667 C94.832,170.255 94.917,171.924 95.052,173.624 C101.619,176.037 108.712,177.364 116.119,177.377 C122.862,177.364 129.34,176.25 135.403,174.234 C133.978,172.931 132.618,171.542 131.38,169.977 C123.16,159.495 118.574,144.133 111.318,118.303" fill="#91DC47"></path>
			<path d="M80.97,66.225 C65.271,77.289 54.998,95.537 54.959,116.217 C54.998,136.588 64.962,154.6 80.266,165.71 C84.02,150.073 93.43,135.755 107.541,107.055 C106.703,104.753 105.748,102.233 104.679,99.586 C100.77,89.78 95.128,78.392 90.093,73.235 C87.526,70.541 84.411,68.213 80.97,66.225" fill="#91DC47"></path>
			<path d="M169.394,186.367 C161.294,185.352 154.609,184.127 148.761,182.064 C138.925,186.948 127.848,189.707 116.119,189.707 C75.535,189.707 42.636,156.813 42.631,116.217 C42.631,94.19 52.335,74.444 67.687,60.977 C63.581,59.985 59.299,59.406 54.925,59.414 C33.363,59.617 10.602,71.55 1.126,103.777 C0.24,108.468 0.451,112.015 0.451,116.219 C0.451,180.104 52.242,231.895 116.122,231.895 C155.244,231.895 189.804,212.456 210.733,182.726 C199.413,185.547 188.527,186.896 179.205,186.925 C175.711,186.925 172.431,186.738 169.394,186.367" fill="#63B132"></path>
			<path d="M147.658,163.953 C148.372,164.307 149.991,164.885 152.244,165.524 C167.401,154.397 177.251,136.474 177.29,116.217 L177.284,116.217 C177.227,82.446 149.898,55.121 116.119,55.054 C109.405,55.067 102.955,56.175 96.916,58.176 C109.335,72.332 115.307,92.562 121.084,114.691 C121.087,114.701 121.092,114.709 121.094,114.717 C121.105,114.735 122.942,120.862 126.096,128.991 C129.228,137.109 133.69,147.159 138.556,154.483 C141.751,159.391 145.265,162.918 147.658,163.953" fill="#90B4FE"></path>
			<path d="M116.122,0.541 C77.378,0.541 43.106,19.614 22.114,48.859 C33.039,42.017 44.194,39.549 53.929,39.637 C67.375,39.676 77.946,43.845 83.018,46.697 C84.243,47.403 85.406,48.163 86.545,48.944 C95.595,44.958 105.595,42.729 116.119,42.729 C156.708,42.734 189.612,75.628 189.618,116.217 L189.612,116.217 C189.612,136.681 181.242,155.184 167.749,168.508 C171.061,168.879 174.593,169.11 178.2,169.092 C191.011,169.098 204.858,166.271 215.239,157.54 C222.008,151.838 227.679,143.489 230.824,130.971 C231.439,126.136 231.793,121.221 231.793,116.219 C231.793,52.337 180.007,0.541 116.122,0.541" fill="#5881D8"></path>
		</g>
	</g>
</svg>

<svg viewBox="0 0 256 256" xmlns="http://www.w3.org/2000/svg"><path fill="#FFF" d="M127.99 0C57.41 0-.01 57.423-.01 128.001c0 70.584 57.42 128.004 127.99 128.004s128-57.42 128-128.004C255.98 57.423 198.557 0 127.97 0"/><g transform="translate(12 12)"><g fill="#91DC47"><path d="M111.31 118.303c-1.15 2.49-2.42 5.29-3.74 8.27 -4.65 10.52-9.79 23.33-11.67 31.53 -.68 2.92-1.1 6.54-1.09 10.55 0 1.58.08 3.25.22 4.95 6.56 2.41 13.66 3.74 21.06 3.75 6.74-.02 13.22-1.13 19.28-3.15 -1.43-1.31-2.79-2.7-4.03-4.26 -8.22-10.482-12.81-25.85-20.07-51.68"/><path d="M80.97 66.225c-15.7 11.06-25.972 29.31-26.02 49.99 .03 20.37 10.003 38.38 25.3 49.49 3.75-15.637 13.16-29.96 27.27-58.66 -.84-2.31-1.8-4.83-2.87-7.47 -3.91-9.81-9.56-21.2-14.59-26.351 -2.57-2.7-5.69-5.03-9.13-7.01"/></g><path fill="#63B132" d="M169.394 186.36c-8.1-1.02-14.79-2.24-20.64-4.31 -9.84 4.88-20.92 7.64-32.65 7.64 -40.584 0-73.483-32.9-73.488-73.49 0-22.03 9.704-41.78 25.05-55.24 -4.11-1-8.39-1.58-12.77-1.57 -21.57.2-44.33 12.13-53.8 44.36 -.89 4.69-.68 8.238-.68 12.44 0 63.88 51.79 115.67 115.67 115.67 39.12 0 73.68-19.44 94.61-49.17 -11.32 2.82-22.21 4.17-31.53 4.19 -3.5 0-6.78-.19-9.82-.56"/><path fill="#90B4FE" d="M147.65 163.95c.71.35 2.33.93 4.58 1.57 15.15-11.13 25-29.05 25.04-49.31h-.01c-.06-33.78-27.39-61.1-61.17-61.17 -6.72.01-13.17 1.12-19.21 3.12 12.41 14.15 18.39 34.38 24.16 56.51 0 .01 0 .01.01.02s1.84 6.14 5 14.27c3.13 8.11 7.59 18.16 12.46 25.49 3.19 4.9 6.7 8.43 9.1 9.47"/><path fill="#5881D8" d="M116.12.54C77.376.54 43.1 19.61 22.11 48.858c10.92-6.85 22.08-9.31 31.81-9.23 13.44.03 24.01 4.2 29.089 7.06 1.22.7 2.38 1.46 3.52 2.24 9.05-3.99 19.05-6.22 29.57-6.22 40.589 0 73.493 32.89 73.499 73.488h-.01c0 20.464-8.37 38.96-21.87 52.291 3.31.37 6.84.6 10.45.58 12.81 0 26.65-2.83 37.03-11.56 6.76-5.71 12.44-14.06 15.58-26.57 .61-4.84.96-9.75.96-14.76 0-63.89-51.79-115.68-115.68-115.68"/></g></svg>
